(G-CODE GENERATED BY FLATCAM v8.994 - www.flatcam.org - Version Date: 2020/11/7)

(Name: LoRaKid-F_Cu.gbr_iso_combined_cnc)
(Type: G-code from Geometry)
(Units: MM)

(Created on Friday, 31 May 2024 at 13:48)

(This preprocessor is the default preprocessor used by FlatCAM.)
(It is made to work with MACH3 compatible motion controllers.)

(TOOL DIAMETER: 0.08 mm)
(Feedrate_XY: 120.0 mm/min)
(Feedrate_Z: 60.0 mm/min)
(Feedrate rapids 1500.0 mm/min)

(Z_Cut: 0.0373 mm)
(Z_Move: 2.0 mm)
(Z Start: None mm)
(Z End: 15.0 mm)
(X,Y End: None mm)
(Steps per circle: 64)
(Preprocessor Geometry: default)

(X range:  101.4205 ...  169.4995  mm)
(Y range: -144.9395 ...  -25.8605  mm)

(Spindle Speed: 0.0 RPM)
G21
G90
G94

G01 F120.00

M5
G00 Z15.0000
G00 X0.0000 Y0.0000
T1
M6    
(MSG, Change to Tool Dia = 0.0800)
M0
G00 Z15.0000

M03
G01 F120.00
G00 X101.4205 Y-26.0245
G01 F60.00
G01 Z0.0373
G01 F120.00
G01 X101.4205 Y-144.7755
G01 X101.4212 Y-144.7831
G01 X101.4326 Y-144.8355
G01 X101.4343 Y-144.8413
G01 X101.4369 Y-144.8467
G01 X101.4415 Y-144.8532
G01 X101.4872 Y-144.9060
G01 X101.4915 Y-144.9102
G01 X101.4963 Y-144.9137
G01 X101.5006 Y-144.9161
G01 X101.5052 Y-144.9179
G01 X101.5732 Y-144.9379
G01 X101.5788 Y-144.9391
G01 X101.5845 Y-144.9395
G01 X153.4542 Y-144.9395
G01 X169.3367 Y-144.8245
G01 X169.3441 Y-144.8238
G01 X169.3957 Y-144.8124
G01 X169.4014 Y-144.8107
G01 X169.4067 Y-144.8081
G01 X169.4132 Y-144.8035
G01 X169.4660 Y-144.7578
G01 X169.4702 Y-144.7536
G01 X169.4737 Y-144.7488
G01 X169.4761 Y-144.7444
G01 X169.4779 Y-144.7398
G01 X169.4979 Y-144.6718
G01 X169.4991 Y-144.6662
G01 X169.4995 Y-144.6605
G01 X169.4995 Y-26.0245
G01 X169.4988 Y-26.0169
G01 X169.4874 Y-25.9645
G01 X169.4857 Y-25.9587
G01 X169.4831 Y-25.9533
G01 X169.4785 Y-25.9468
G01 X169.4328 Y-25.8940
G01 X169.4285 Y-25.8898
G01 X169.4237 Y-25.8863
G01 X169.4194 Y-25.8839
G01 X169.4148 Y-25.8821
G01 X169.3468 Y-25.8621
G01 X169.3412 Y-25.8609
G01 X169.3355 Y-25.8605
G01 X101.5845 Y-25.8605
G01 X101.5769 Y-25.8612
G01 X101.5245 Y-25.8726
G01 X101.5197 Y-25.8740
G01 X101.5142 Y-25.8764
G01 X101.5068 Y-25.8815
G01 X101.4518 Y-25.9293
G01 X101.4485 Y-25.9330
G01 X101.4458 Y-25.9371
G01 X101.4421 Y-25.9452
G01 X101.4219 Y-26.0141
G01 X101.4208 Y-26.0198
G01 X101.4205 Y-26.0245
G00 Z2.0000
G00 X103.8395 Y-29.4087
G01 F60.00
G01 Z0.0373
G01 F120.00
G01 X103.8395 Y-29.5913
G01 X103.8681 Y-29.7718
G01 X103.9245 Y-29.9455
G01 X104.0075 Y-30.1082
G01 X104.1148 Y-30.2560
G01 X104.2440 Y-30.3852
G01 X104.3918 Y-30.4925
G01 X104.5545 Y-30.5755
G01 X104.7282 Y-30.6319
G01 X104.9087 Y-30.6605
G01 X105.0913 Y-30.6605
G01 X105.2718 Y-30.6319
G01 X105.4455 Y-30.5755
G01 X105.6082 Y-30.4925
G01 X105.7560 Y-30.3852
G01 X105.8852 Y-30.2560
G01 X105.9925 Y-30.1082
G01 X106.0755 Y-29.9455
G01 X106.1319 Y-29.7718
G01 X106.1605 Y-29.5913
G01 X106.1605 Y-29.4087
G01 X106.1319 Y-29.2282
G01 X106.0755 Y-29.0545
G01 X105.9925 Y-28.8918
G01 X105.8852 Y-28.7440
G01 X105.7560 Y-28.6148
G01 X105.6082 Y-28.5075
G01 X105.4455 Y-28.4245
G01 X105.2718 Y-28.3681
G01 X105.0913 Y-28.3395
G01 X104.9087 Y-28.3395
G01 X104.7282 Y-28.3681
G01 X104.5545 Y-28.4245
G01 X104.3918 Y-28.5075
G01 X104.2440 Y-28.6148
G01 X104.1148 Y-28.7440
G01 X104.0690 Y-28.8071
G01 X104.0075 Y-28.8918
G01 X103.9245 Y-29.0545
G01 X103.8681 Y-29.2282
G01 X103.8395 Y-29.4087
G00 Z2.0000
G00 X101.9595 Y-33.0043
G01 F60.00
G01 Z0.0373
G01 F120.00
G01 X101.9595 Y-34.4957
G01 X101.9651 Y-34.5482
G01 X102.0117 Y-34.6730
G01 X102.0910 Y-34.7790
G01 X102.1970 Y-34.8583
G01 X102.3218 Y-34.9049
G01 X102.3743 Y-34.9105
G01 X104.0657 Y-34.9105
G01 X104.1182 Y-34.9049
G01 X104.2430 Y-34.8583
G01 X104.3490 Y-34.7790
G01 X104.4283 Y-34.6730
G01 X104.4316 Y-34.6645
G01 X104.4348 Y-34.6587
G01 X104.4778 Y-34.6013
G01 X104.4817 Y-34.5968
G01 X104.4863 Y-34.5929
G01 X104.4904 Y-34.5902
G01 X104.4958 Y-34.5878
G01 X104.5622 Y-34.5630
G01 X104.5680 Y-34.5615
G01 X104.5729 Y-34.5609
G01 X104.5841 Y-34.5605
G01 X105.0100 Y-34.5605
G01 X105.0157 Y-34.5609
G01 X105.0203 Y-34.5619
G01 X105.0920 Y-34.5831
G01 X105.0981 Y-34.5862
G01 X105.1221 Y-34.6022
G01 X105.2696 Y-34.6633
G01 X105.4262 Y-34.6944
G01 X107.9842 Y-34.6946
G01 X107.9917 Y-34.6960
G01 X108.0587 Y-34.7157
G01 X108.0660 Y-34.7187
G01 X108.0710 Y-34.7218
G01 X108.0856 Y-34.7328
G01 X108.2543 Y-34.8373
G01 X108.4375 Y-34.9083
G01 X108.6307 Y-34.9444
G01 X108.8273 Y-34.9444
G01 X109.0205 Y-34.9083
G01 X109.2037 Y-34.8373
G01 X109.3708 Y-34.7338
G01 X109.5140 Y-34.6033
G01 X109.5177 Y-34.6003
G01 X109.5234 Y-34.5969
G01 X109.5899 Y-34.5647
G01 X109.5984 Y-34.5626
G01 X109.6234 Y-34.5605
G01 X109.8559 Y-34.5605
G01 X109.8606 Y-34.5608
G01 X109.8662 Y-34.5619
G01 X109.9351 Y-34.5821
G01 X109.9424 Y-34.5853
G01 X109.9489 Y-34.5898
G01 X109.9531 Y-34.5940
G01 X110.0007 Y-34.6491
G01 X110.0052 Y-34.6568
G01 X110.0117 Y-34.6730
G01 X110.0910 Y-34.7790
G01 X110.1970 Y-34.8583
G01 X110.3218 Y-34.9049
G01 X110.3743 Y-34.9105
G01 X112.0657 Y-34.9105
G01 X112.1182 Y-34.9049
G01 X112.2430 Y-34.8583
G01 X112.3490 Y-34.7790
G01 X112.4283 Y-34.6730
G01 X112.4749 Y-34.5482
G01 X112.4805 Y-34.4957
G01 X112.4805 Y-33.0043
G01 X112.4749 Y-32.9518
G01 X112.4283 Y-32.8270
G01 X112.3490 Y-32.7210
G01 X112.2430 Y-32.6417
G01 X112.1182 Y-32.5951
G01 X112.0657 Y-32.5895
G01 X110.3743 Y-32.5895
G01 X110.3218 Y-32.5951
G01 X110.1970 Y-32.6417
G01 X110.0910 Y-32.7210
G01 X110.0117 Y-32.8270
G01 X110.0084 Y-32.8355
G01 X110.0046 Y-32.8420
G01 X109.9622 Y-32.8987
G01 X109.9583 Y-32.9032
G01 X109.9521 Y-32.9082
G01 X109.9451 Y-32.9119
G01 X109.8778 Y-32.9370
G01 X109.8730 Y-32.9383
G01 X109.8681 Y-32.9390
G01 X109.8559 Y-32.9395
G01 X109.2539 Y-32.9393
G01 X109.2054 Y-32.9304
G01 X109.2001 Y-32.9291
G01 X109.0205 Y-32.8595
G01 X108.8273 Y-32.8234
G01 X108.6307 Y-32.8234
G01 X108.4375 Y-32.8595
G01 X108.2543 Y-32.9305
G01 X108.0856 Y-33.0350
G01 X108.0784 Y-33.0400
G01 X108.0722 Y-33.0429
G01 X108.0656 Y-33.0447
G01 X108.0169 Y-33.0684
G01 X108.0113 Y-33.0703
G01 X108.0045 Y-33.0715
G01 X107.9804 Y-33.0734
G01 X105.8680 Y-33.0734
G01 X105.8623 Y-33.0730
G01 X105.8577 Y-33.0720
G01 X105.7860 Y-33.0508
G01 X105.7799 Y-33.0477
G01 X105.7559 Y-33.0317
G01 X105.6084 Y-32.9706
G01 X105.4518 Y-32.9395
G01 X104.5841 Y-32.9395
G01 X104.5784 Y-32.9391
G01 X104.5738 Y-32.9381
G01 X104.5039 Y-32.9176
G01 X104.4967 Y-32.9142
G01 X104.4896 Y-32.9089
G01 X104.4393 Y-32.8509
G01 X104.4348 Y-32.8432
G01 X104.4283 Y-32.8270
G01 X104.3490 Y-32.7210
G01 X104.2430 Y-32.6417
G01 X104.1182 Y-32.5951
G01 X104.0657 Y-32.5895
G01 X102.3743 Y-32.5895
G01 X102.3218 Y-32.5951
G01 X102.1970 Y-32.6417
G01 X102.0910 Y-32.7210
G01 X102.0117 Y-32.8270
G01 X101.9651 Y-32.9518
G01 X101.9595 Y-33.0043
G00 Z2.0000
G00 X102.4200 Y-34.4900
G01 F60.00
G01 Z0.0373
G01 F120.00
G01 X104.0200 Y-34.4900
G01 X104.0288 Y-34.4890
G01 X104.0344 Y-34.4873
G01 X104.0406 Y-34.4843
G01 X104.0461 Y-34.4803
G01 X104.0503 Y-34.4761
G01 X104.0538 Y-34.4714
G01 X104.0570 Y-34.4653
G01 X104.0588 Y-34.4597
G01 X104.0598 Y-34.4539
G01 X104.0600 Y-34.1402
G01 X105.2105 Y-34.1402
G01 X105.2309 Y-34.1606
G01 X105.2577 Y-34.1849
G01 X105.2884 Y-34.2078
G01 X105.3221 Y-34.2280
G01 X105.3558 Y-34.2440
G01 X105.3927 Y-34.2573
G01 X105.4299 Y-34.2666
G01 X105.4678 Y-34.2722
G01 X105.5050 Y-34.2741
G01 X108.2225 Y-34.2741
G01 X108.2349 Y-34.2907
G01 X108.2758 Y-34.3357
G01 X108.3222 Y-34.3780
G01 X108.3734 Y-34.4160
G01 X108.4282 Y-34.4488
G01 X108.4859 Y-34.4759
G01 X108.5432 Y-34.4963
G01 X108.6022 Y-34.5112
G01 X108.6663 Y-34.5208
G01 X108.7290 Y-34.5239
G01 X108.7917 Y-34.5208
G01 X108.8519 Y-34.5119
G01 X108.9148 Y-34.4963
G01 X108.9739 Y-34.4752
G01 X109.0289 Y-34.4492
G01 X109.0846 Y-34.4160
G01 X109.1365 Y-34.3773
G01 X109.1815 Y-34.3364
G01 X109.2237 Y-34.2899
G01 X109.2622 Y-34.2378
G01 X109.2934 Y-34.1856
G01 X109.3150 Y-34.1402
G01 X110.3800 Y-34.1402
G01 X110.3802 Y-34.4539
G01 X110.3812 Y-34.4597
G01 X110.3830 Y-34.4653
G01 X110.3862 Y-34.4714
G01 X110.3897 Y-34.4761
G01 X110.3939 Y-34.4803
G01 X110.3994 Y-34.4843
G01 X110.4056 Y-34.4873
G01 X110.4112 Y-34.4890
G01 X110.4200 Y-34.4900
G01 X112.0200 Y-34.4900
G01 X112.0259 Y-34.4896
G01 X112.0325 Y-34.4880
G01 X112.0389 Y-34.4853
G01 X112.0454 Y-34.4809
G01 X112.0503 Y-34.4761
G01 X112.0543 Y-34.4706
G01 X112.0573 Y-34.4644
G01 X112.0592 Y-34.4578
G01 X112.0600 Y-34.4510
G01 X112.0600 Y-33.0500
G01 X112.0596 Y-33.0441
G01 X112.0580 Y-33.0375
G01 X112.0553 Y-33.0311
G01 X112.0515 Y-33.0254
G01 X112.0469 Y-33.0204
G01 X112.0414 Y-33.0162
G01 X112.0353 Y-33.0130
G01 X112.0288 Y-33.0110
G01 X112.0210 Y-33.0100
G01 X110.4200 Y-33.0100
G01 X110.4122 Y-33.0108
G01 X110.4065 Y-33.0123
G01 X110.4003 Y-33.0152
G01 X110.3954 Y-33.0185
G01 X110.3904 Y-33.0231
G01 X110.3867 Y-33.0278
G01 X110.3834 Y-33.0338
G01 X110.3812 Y-33.0403
G01 X110.3802 Y-33.0461
G01 X110.3800 Y-33.3598
G01 X109.0955 Y-33.3598
G01 X109.0837 Y-33.3512
G01 X109.0298 Y-33.3190
G01 X108.9739 Y-33.2926
G01 X108.9148 Y-33.2715
G01 X108.8539 Y-33.2562
G01 X108.7937 Y-33.2472
G01 X108.7280 Y-33.2439
G01 X108.6663 Y-33.2470
G01 X108.6022 Y-33.2566
G01 X108.5432 Y-33.2715
G01 X108.4859 Y-33.2919
G01 X108.4282 Y-33.3190
G01 X108.3734 Y-33.3518
G01 X108.3222 Y-33.3898
G01 X108.2758 Y-33.4321
G01 X108.2349 Y-33.4771
G01 X108.2225 Y-33.4937
G01 X105.6675 Y-33.4937
G01 X105.6471 Y-33.4733
G01 X105.6186 Y-33.4477
G01 X105.5887 Y-33.4255
G01 X105.5549 Y-33.4054
G01 X105.5212 Y-33.3895
G01 X105.4851 Y-33.3766
G01 X105.4480 Y-33.3673
G01 X105.4091 Y-33.3616
G01 X105.3720 Y-33.3598
G01 X104.0600 Y-33.3598
G01 X104.0598 Y-33.0461
G01 X104.0586 Y-33.0393
G01 X104.0562 Y-33.0329
G01 X104.0533 Y-33.0278
G01 X104.0490 Y-33.0224
G01 X104.0438 Y-33.0179
G01 X104.0389 Y-33.0147
G01 X104.0325 Y-33.0120
G01 X104.0259 Y-33.0104
G01 X104.0200 Y-33.0100
G01 X102.4200 Y-33.0100
G01 X102.4141 Y-33.0104
G01 X102.4075 Y-33.0120
G01 X102.4011 Y-33.0147
G01 X102.3954 Y-33.0185
G01 X102.3904 Y-33.0231
G01 X102.3862 Y-33.0286
G01 X102.3830 Y-33.0347
G01 X102.3810 Y-33.0412
G01 X102.3800 Y-33.0490
G01 X102.3800 Y-34.4500
G01 X102.3808 Y-34.4578
G01 X102.3830 Y-34.4653
G01 X102.3867 Y-34.4722
G01 X102.3917 Y-34.4783
G01 X102.3978 Y-34.4833
G01 X102.4047 Y-34.4870
G01 X102.4122 Y-34.4892
G01 X102.4200 Y-34.4900
G00 Z2.0000
G00 X103.5100 Y-37.5100
G01 F60.00
G01 Z0.0373
G01 F120.00
G01 X104.0200 Y-37.5100
G01 X104.0288 Y-37.5110
G01 X104.0371 Y-37.5138
G01 X104.0414 Y-37.5162
G01 X104.0461 Y-37.5197
G01 X104.0496 Y-37.5231
G01 X104.0533 Y-37.5278
G01 X104.0557 Y-37.5320
G01 X104.0580 Y-37.5375
G01 X104.0592 Y-37.5422
G01 X104.0600 Y-37.5480
G01 X104.0600 Y-37.9600
G01 X104.4800 Y-37.9600
G01 X104.4800 Y-37.5043
G01 X104.4744 Y-37.4519
G01 X104.4279 Y-37.3273
G01 X104.3486 Y-37.2214
G01 X104.2427 Y-37.1421
G01 X104.1181 Y-37.0956
G01 X104.0657 Y-37.0900
G01 X103.5100 Y-37.0900
G01 X103.5100 Y-37.5100
G00 Z2.0000
G00 X102.3800 Y-37.9600
G01 F60.00
G01 Z0.0373
G01 F120.00
G01 X102.3800 Y-37.5490
G01 X102.3804 Y-37.5441
G01 X102.3817 Y-37.5384
G01 X102.3838 Y-37.5329
G01 X102.3862 Y-37.5286
G01 X102.3891 Y-37.5246
G01 X102.3924 Y-37.5210
G01 X102.3962 Y-37.5179
G01 X102.4003 Y-37.5152
G01 X102.4047 Y-37.5130
G01 X102.4093 Y-37.5114
G01 X102.4141 Y-37.5104
G01 X102.4190 Y-37.5100
G01 X102.9300 Y-37.5100
G01 X102.9300 Y-37.0900
G01 X102.3743 Y-37.0900
G01 X102.3219 Y-37.0956
G01 X102.1973 Y-37.1421
G01 X102.0914 Y-37.2214
G01 X102.0121 Y-37.3273
G01 X101.9656 Y-37.4519
G01 X101.9600 Y-37.5043
G01 X101.9600 Y-37.9600
G01 X102.3800 Y-37.9600
G00 Z2.0000
G00 X101.9600 Y-38.9957
G01 F60.00
G01 Z0.0373
G01 F120.00
G01 X101.9656 Y-39.0481
G01 X102.0121 Y-39.1727
G01 X102.0914 Y-39.2786
G01 X102.1973 Y-39.3579
G01 X102.3219 Y-39.4044
G01 X102.3743 Y-39.4100
G01 X102.9300 Y-39.4100
G01 X102.9300 Y-38.9900
G01 X102.4190 Y-38.9900
G01 X102.4141 Y-38.9896
G01 X102.4093 Y-38.9886
G01 X102.4047 Y-38.9870
G01 X102.4003 Y-38.9848
G01 X102.3962 Y-38.9821
G01 X102.3924 Y-38.9790
G01 X102.3891 Y-38.9754
G01 X102.3862 Y-38.9714
G01 X102.3834 Y-38.9662
G01 X102.3817 Y-38.9616
G01 X102.3806 Y-38.9568
G01 X102.3800 Y-38.9510
G01 X102.3800 Y-38.5400
G01 X101.9600 Y-38.5400
G01 X101.9600 Y-38.9957
G00 Z2.0000
G00 X104.0600 Y-38.9500
G01 F60.00
G01 Z0.0373
G01 F120.00
G01 X104.0594 Y-38.9568
G01 X104.0573 Y-38.9644
G01 X104.0538 Y-38.9714
G01 X104.0496 Y-38.9769
G01 X104.0438 Y-38.9821
G01 X104.0371 Y-38.9862
G01 X104.0297 Y-38.9888
G01 X104.0229 Y-38.9899
G01 X103.5100 Y-38.9900
G01 X103.5100 Y-39.4100
G01 X104.0657 Y-39.4100
G01 X104.1181 Y-39.4044
G01 X104.2427 Y-39.3579
G01 X104.3486 Y-39.2786
G01 X104.4279 Y-39.1727
G01 X104.4744 Y-39.0481
G01 X104.4800 Y-38.9957
G01 X104.4800 Y-38.5400
G01 X104.0600 Y-38.5400
G01 X104.0600 Y-38.9500
G00 Z2.0000
G00 X109.9600 Y-38.9957
G01 F60.00
G01 Z0.0373
G01 F120.00
G01 X109.9656 Y-39.0481
G01 X110.0121 Y-39.1727
G01 X110.0914 Y-39.2786
G01 X110.1973 Y-39.3579
G01 X110.3219 Y-39.4044
G01 X110.3743 Y-39.4100
G01 X110.9300 Y-39.4100
G01 X110.9300 Y-38.9900
G01 X110.4190 Y-38.9900
G01 X110.4141 Y-38.9896
G01 X110.4093 Y-38.9886
G01 X110.4047 Y-38.9870
G01 X110.4003 Y-38.9848
G01 X110.3962 Y-38.9821
G01 X110.3924 Y-38.9790
G01 X110.3891 Y-38.9754
G01 X110.3862 Y-38.9714
G01 X110.3834 Y-38.9662
G01 X110.3817 Y-38.9616
G01 X110.3806 Y-38.9568
G01 X110.3800 Y-38.9510
G01 X110.3800 Y-38.5400
G01 X109.9600 Y-38.5400
G01 X109.9600 Y-38.9957
G00 Z2.0000
G00 X110.3800 Y-37.9600
G01 F60.00
G01 Z0.0373
G01 F120.00
G01 X110.3800 Y-37.5490
G01 X110.3804 Y-37.5441
G01 X110.3817 Y-37.5384
G01 X110.3838 Y-37.5329
G01 X110.3862 Y-37.5286
G01 X110.3891 Y-37.5246
G01 X110.3924 Y-37.5210
G01 X110.3962 Y-37.5179
G01 X110.4003 Y-37.5152
G01 X110.4047 Y-37.5130
G01 X110.4093 Y-37.5114
G01 X110.4141 Y-37.5104
G01 X110.4190 Y-37.5100
G01 X110.9300 Y-37.5100
G01 X110.9300 Y-37.0900
G01 X110.3743 Y-37.0900
G01 X110.3219 Y-37.0956
G01 X110.1973 Y-37.1421
G01 X110.0914 Y-37.2214
G01 X110.0121 Y-37.3273
G01 X109.9656 Y-37.4519
G01 X109.9600 Y-37.5043
G01 X109.9600 Y-37.9600
G01 X110.3800 Y-37.9600
G00 Z2.0000
G00 X111.5100 Y-37.5100
G01 F60.00
G01 Z0.0373
G01 F120.00
G01 X112.0200 Y-37.5100
G01 X112.0288 Y-37.5110
G01 X112.0371 Y-37.5138
G01 X112.0414 Y-37.5162
G01 X112.0461 Y-37.5197
G01 X112.0496 Y-37.5231
G01 X112.0533 Y-37.5278
G01 X112.0557 Y-37.5320
G01 X112.0580 Y-37.5375
G01 X112.0592 Y-37.5422
G01 X112.0600 Y-37.5480
G01 X112.0600 Y-37.9600
G01 X112.4800 Y-37.9600
G01 X112.4800 Y-37.5043
G01 X112.4744 Y-37.4519
G01 X112.4279 Y-37.3273
G01 X112.3486 Y-37.2214
G01 X112.2427 Y-37.1421
G01 X112.1181 Y-37.0956
G01 X112.0657 Y-37.0900
G01 X111.5100 Y-37.0900
G01 X111.5100 Y-37.5100
G00 Z2.0000
G00 X112.0600 Y-38.9500
G01 F60.00
G01 Z0.0373
G01 F120.00
G01 X112.0594 Y-38.9568
G01 X112.0573 Y-38.9644
G01 X112.0538 Y-38.9714
G01 X112.0496 Y-38.9769
G01 X112.0438 Y-38.9821
G01 X112.0371 Y-38.9862
G01 X112.0297 Y-38.9888
G01 X112.0229 Y-38.9899
G01 X111.5100 Y-38.9900
G01 X111.5100 Y-39.4100
G01 X112.0657 Y-39.4100
G01 X112.1181 Y-39.4044
G01 X112.2427 Y-39.3579
G01 X112.3486 Y-39.2786
G01 X112.4279 Y-39.1727
G01 X112.4744 Y-39.0481
G01 X112.4800 Y-38.9957
G01 X112.4800 Y-38.5400
G01 X112.0600 Y-38.5400
G01 X112.0600 Y-38.9500
G00 Z2.0000
G00 X116.2000 Y-38.9900
G01 F60.00
G01 Z0.0373
G01 F120.00
G01 X117.8000 Y-38.9900
G01 X117.8049 Y-38.9897
G01 X117.8116 Y-38.9883
G01 X117.8180 Y-38.9857
G01 X117.8238 Y-38.9821
G01 X117.8290 Y-38.9776
G01 X117.8333 Y-38.9722
G01 X117.8366 Y-38.9662
G01 X117.8388 Y-38.9597
G01 X117.8398 Y-38.9539
G01 X117.8400 Y-38.6402
G01 X119.1520 Y-38.6402
G01 X119.1902 Y-38.6383
G01 X119.2262 Y-38.6330
G01 X119.2662 Y-38.6231
G01 X119.3013 Y-38.6105
G01 X119.3376 Y-38.5931
G01 X119.3688 Y-38.5744
G01 X119.3980 Y-38.5528
G01 X119.4272 Y-38.5266
G01 X120.3396 Y-37.6143
G01 X124.1600 Y-37.6143
G01 X124.1600 Y-38.9500
G01 X124.1610 Y-38.9588
G01 X124.1638 Y-38.9671
G01 X124.1685 Y-38.9746
G01 X124.1746 Y-38.9809
G01 X124.1803 Y-38.9848
G01 X124.1865 Y-38.9877
G01 X124.1932 Y-38.9894
G01 X124.2000 Y-38.9900
G01 X125.8000 Y-38.9900
G01 X125.8059 Y-38.9896
G01 X125.8116 Y-38.9883
